X:56
T:Dybbuk
M:6/8
C:© Paul Gitlitz 2007
R:Jig
N:ew for "attachment". A Soul stealing ghost from "The Gehenna".
K:Dm
"Dm"DFA "Dm/A"d2A|"Dm" DFA "Bb"B2A|"Dm"DFA "Dm/F"dfe|dBA "C"GFE|!
"Dm"DFA "Dm/A"d2A|"Dm" DFA "Bb"B2A|dBc "Dm"AGF|"A"ED^C "Dm"D3:|!
|:"Dm"ada "C"gcg|"Bb"fBf "Am"eAe|"Dm"dcd "C"efg|"Dm"agf "Am"e3|!
"Gm"dGd "F"cFc|"Bbdim"B_EB "Dm"ADA|"Bb"dBc "Dm"AGF|"A"ED^C "Dm"D3:|

